X:1043
M:C
L:1/8
Q:1/2=104
K:D
a| f/e/d ad bdad|f/e/d af beea| f/e/d ad bdad| A>Bde fdda|
   f/e/d ad bdad|f/e/d af beeg| fadf     gbef|TA>Bde fdd|]

